src/icons/Chevron_right.svg

<svg width="32" height="32" viewBox="0 0 32 32" fill="none" xmlns="http://www.w3.org/2000/svg">
<path fill-rule="evenodd" clip-rule="evenodd" d="M11.2929 5.29289C11.6834 4.90237 12.3166 4.90237 12.7071 5.29289L22.7071 15.2929C23.0976 15.6834 23.0976 16.3166 22.7071 16.7071L12.7071 26.7071C12.3166 27.0976 11.6834 27.0976 11.2929 26.7071C10.9024 26.3166 10.9024 25.6834 11.2929 25.2929L20.5858 16L11.2929 6.70711C10.9024 6.31658 10.9024 5.68342 11.2929 5.29289Z" fill="white"/>
<path fill-rule="evenodd" clip-rule="evenodd" d="M10.9393 4.93934C11.5251 4.35355 12.4749 4.35355 13.0607 4.93934L23.0607 14.9393C23.6464 15.5251 23.6464 16.4749 23.0607 17.0607L13.0607 27.0607C12.4749 27.6464 11.5251 27.6464 10.9393 27.0607C10.3536 26.4749 10.3536 25.5251 10.9393 24.9393L19.8787 16L10.9393 7.06066C10.3536 6.47487 10.3536 5.52513 10.9393 4.93934ZM12.3536 5.64645C12.1583 5.45118 11.8417 5.45118 11.6464 5.64645C11.4512 5.84171 11.4512 6.15829 11.6464 6.35355L20.9393 15.6464C21.0331 15.7402 21.0858 15.8674 21.0858 16C21.0858 16.1326 21.0331 16.2598 20.9393 16.3536L11.6464 25.6464C11.4512 25.8417 11.4512 26.1583 11.6464 26.3536C11.8417 26.5488 12.1583 26.5488 12.3536 26.3536L22.3536 16.3536C22.5488 16.1583 22.5488 15.8417 22.3536 15.6464L12.3536 5.64645Z" fill="white"/>
</svg>

<svg xmlns="http://www.w3.org/2000/svg" width="32" height="32" fill="none"><path fill="#fff" fill-rule="evenodd" d="M11.293 5.293a1 1 0 0 1 1.414 0l10 10a1 1 0 0 1 0 1.414l-10 10a1 1 0 0 1-1.414-1.414L20.586 16l-9.293-9.293a1 1 0 0 1 0-1.414" clip-rule="evenodd"/><path fill="#fff" fill-rule="evenodd" d="M10.94 4.94a1.5 1.5 0 0 1 2.12 0l10 10a1.5 1.5 0 0 1 0 2.12l-10 10a1.5 1.5 0 0 1-2.12-2.12L19.878 16l-8.94-8.94a1.5 1.5 0 0 1 0-2.12m1.414.706a.5.5 0 0 0-.708.708l9.293 9.292a.5.5 0 0 1 0 .708l-9.293 9.292a.5.5 0 0 0 .708.708l10-10a.5.5 0 0 0 0-.708z" clip-rule="evenodd"/></svg>
